X: 1653
T: Sabâaşîrân Seyir
C: Şefik Gürmeriç
O: Turkey
F: http://compmusic.upf.edu/node/140
N: sabaasiran--seyir--sofyan--1--sefik_gurmeric
N: makam= sabaasiran
N: form= seyir
N: usul= sofyan = 4/4
M: 4/4
L: 1/16
K: C _1/4B _7/8d  
Q: 1/4=60
%%MIDI tuningsystem comma53
c8 _3/4d6c2  | c3_2/4B A2B2 c8  | z4 c2_3/4d2 e2f2 g2_7/8a2  | \
w:   |   |   | 
g2f2 e2g2 f8  | z4 e2f2 g4 _7/8a4  | 
w:   |   | 
g2f2 f2e2 e8  | z4 f4 e4 _3/4d4  | e2_3/4d2 c2_2/4B2 c8  | \
w:   |   |   | 
z4 c2_3/4d2 c4 d2e2  | _3/4d2c2 c2d2 c2_2/4BA B4  | 
w:   |   | 
z4 _2/4B2c2 B4 c2_3/4d2  | c3_2/4B A2B2 A8  | \
w:   |   | 
z4 A2_2/4B2 c4 B2A2  | A2G2 G2^F2 F2^E2 F4  | 
w:   |   | 
z4 E2^F2 G4 A2B2  | A2G2 G2^3/4F2 F3E =D4  | \
w:   |   | 
z4 =d2e2 d4 c2=B2  | =B2A2 A2G2 ^3/4F3E =D2E2  | 
w:   |   | 
=D4 E2^3/4F2 G2A=B A2G2  | G2^3/4F2 F2E2 E8  | |


